X:1
T:Earl of Morton's Jig
T:Earl of Morton's Jig
T:William Gow (1751-1791)
C:William Gow (1751-1791)
L:1/8
M:6/8
K:C
V:1 treble 
V:1
 F || (E/F/G).G cdc | TBAB cGE | FdF EcE | dDD D2 F | (E/F/G).G cdc | TB3{AB} cGE | TF3{EF} DGF | %8
 ECC TC2 :| f | ecc gcc | acc gcc | ecc gcc | fdd Td2 f | ecc gcc | acc gcc | Tfef dgf | ecc c2 f | %18
 ecc gcc | acc gcc | ecc gcc | fdd Td2 G/F/ | (E/F/)GG cdc | TB3{AB} cGE | (TFEF) DGF | ECC TC2 || %26

